X: 1626
T: Anne Lacey's
R: reel
M: 4/4
K: Amixolydian
|:e3g e2de|gedB AG (3Bcd|ee zd eeba|gedB AGAG|
A3A- ABde|gedB AG (3Bcd|ee zd eede|gede Beee:|
|:e3d BAGA|BAGA Be~e2|c2dA ~e3g|gedB AG (3Bcd|
e3d BAGA|BAGE DBAG|A3A- ABde|gede Beee:|

